!!!OTL: WENN MAN MIR EIN MAEDCHEN NENNT
!!!ARE: Europa, Mitteleuropa, Deutschland
!!!SCT: F0958
!!!YEM: Copyright 1995, estate of Helmut Schaffrath.
**kern
*ICvox
*Ivox
*M6/8
*k[f#]
*G:
=1
{4g
8g
4cc
8b
=2
4ee
8cc
4.dd}
=3
{8.g
16a
8g
4ee
8dd
=4
8dd
8cc
8b
4b
8a}
=5
{4g
8g
4cc
8b
=6
4ee
8cc
4.dd}
=7
{8.dd
16ee
8dd
4gg
8dd
=8
8dd
8cc
8b
4b
8a}
=9
{4cc
8cc
8.cc
16ee
8gg
=10
4b
8gg
4.a}
=11
{4a
8ee
8.dd
16gg
8g
=12
8a
8g
8f#
4.g}
==
!!!AGN: Liebes - Lied
!!!ONB: ESAC (Essen Associative Code) Database: FINK
!!!AMT: compound duple
!!!AIN: vox
!!!EED: Helmut Schaffrath
!!!EEV: 1.0
*-
